!!!OTL-incipit: ES LEUCHTEN DREI STERN UEBER EIN KOENIGSHAUS
!!!ARE: Europa, Mitteleuropa, Deutschland, Rheinland
!!!SCT: Z0012
!!!TXL: @@DE
!!!YEM: Copyright 1995, estate of Helmut Schaffrath.
**kern	**text
*ICvox	*
*M6/8	*
*k[]	*
*a:	*
!LO:TX:a:t=Rheinländiſch.	!
{8e	Es
=1	=1
8.a	leuch-
16b/	-ten
8cc	drei
8.cc	Stern
16dd	ü-
8cc	-ber
=2	=2
8.b	ein
16cc	Kö-
8b	-nigs-
4a}	-haus,
{8ee	drei
=3	=3
8ff	Jung-
8ee	-fräu-
8dd	-lein
8.cc	wohn-
16b	-ten
8a	dar-
=4	=4
4b	-ein.
8r	.
4r}	.
{8e	Es
=5	=5
8.a	leuch-
16b/	-ten
8cc	drei
8.cc	Stern
16dd	ü-
8cc	-ber
=6	=6
8.b	ein
16cc	Kö-
8b	-nigs-
4a}	-haus,
{8ee	drei
=7	=7
8ff	Jung-
8ee	-fräu-
8dd	-lein
8.cc	wohn-
16b	-ten
8a	dar-
=8	=8
4b	-ein.
8r	.
4r}	.
=||	=||
{16bL	Jhr
16ccJ	.
=9	=9
8.dd	Va-
16ee	-ter
8dd	war
8ff	weit
8ee	ü-
8dd	-bers
=10	=10
(8ccL	Land
8bJ)	.
8a	hin-
4b/}	-aus
{8a	auf
=11	=11
8.gL	ei-
16aJ	.
8g	-nem
(8ffL	wei-
8eeJ)	.
8dd	-ßen
=12	=12
(8ddL	Röſ-
8ccJ)	.
8dd	-ſe-
4ee	-lein,
8r}	.
=13	=13
{8.ee	Ster-
16dd	-ne-
8cc	-lein
8cc	blin-
8b	-ʒelt
8a	ʒu
=14	=14
4.b	Leide.
4a}	.
==:|;;	==:|;;
!!!Ag: Sagen - Lied, Romanze, Tod
!!!ONB: ESAC (Essen Associative Code) Database: ZUCCAL
!!!AMT: compound duple
!!!AIN: vox
!!!EED: Helmut Schaffrath
!!!EEV: 1.0
!!!GTL: I. Ernste Romanzen und Sagen.
!!!URL-scan: https://www.digitale-sammlungen.de/de/view/bsb11160571?page=34
!!!ENC: Anna Maria Matuszewska
!!!EEV: 2025/01/23
*-	*-
